public/assets/heart.svg

<svg width="24" height="24" viewBox="0 0 24 24" fill="none" xmlns="http://www.w3.org/2000/svg">
<path fill-rule="evenodd" clip-rule="evenodd" d="M5.67452 4.01961C3.90169 4.82998 2.60293 6.75746 2.60293 9.05591C2.60293 11.4041 3.56385 13.2141 4.94137 14.7652C6.07672 16.0436 7.45108 17.1032 8.79144 18.1365C9.10979 18.382 9.42622 18.6259 9.73708 18.871C10.2992 19.3141 10.8006 19.703 11.284 19.9855C11.7676 20.268 12.1568 20.3971 12.4877 20.3971C12.8185 20.3971 13.2078 20.268 13.6913 19.9855C14.1747 19.703 14.6761 19.3141 15.2382 18.871C15.5491 18.6259 15.8655 18.382 16.1839 18.1365C17.5242 17.1032 18.8986 16.0436 20.0339 14.7652C21.4115 13.2141 22.3724 11.4041 22.3724 9.05591C22.3724 6.75746 21.0736 4.82998 19.3008 4.01961C17.5785 3.23234 15.2643 3.44083 13.0651 5.72571C12.914 5.88268 12.7055 5.97138 12.4877 5.97138C12.2698 5.97138 12.0613 5.88268 11.9102 5.72571C9.71102 3.44083 7.39683 3.23234 5.67452 4.01961ZM12.4877 4.05661C10.017 1.84609 7.25031 1.53686 5.00814 2.56177C2.64002 3.64424 1 6.15775 1 9.05591C1 11.9044 2.1867 14.0773 3.74284 15.8296C4.98902 17.2328 6.51431 18.4073 7.86142 19.4445C8.16679 19.6796 8.463 19.9077 8.74473 20.1298C9.29212 20.5613 9.87974 21.0214 10.4753 21.3694C11.0705 21.7173 11.7499 22 12.4877 22C13.2254 22 13.9048 21.7173 14.5001 21.3694C15.0956 21.0214 15.6832 20.5613 16.2306 20.1298C16.5123 19.9077 16.8085 19.6796 17.1139 19.4445C18.461 18.4073 19.9863 17.2328 21.2325 15.8296C22.7886 14.0773 23.9753 11.9044 23.9753 9.05591C23.9753 6.15775 22.3353 3.64424 19.9672 2.56177C17.725 1.53686 14.9584 1.84609 12.4877 4.05661Z" fill="#EFEFEF"/>
</svg>

<svg width="24" height="24" viewBox="0 0 24 24" fill="none" xmlns="http://www.w3.org/2000/svg"><path fill-rule="evenodd" clip-rule="evenodd" d="M5.675 4.02c-1.773.81-3.072 2.737-3.072 5.036 0 2.348.96 4.158 2.338 5.71 1.136 1.278 2.51 2.337 3.85 3.37.319.246.635.49.946.735.562.443 1.064.832 1.547 1.114.484.283.873.412 1.204.412.33 0 .72-.129 1.203-.412.484-.282.985-.67 1.547-1.114.311-.245.628-.489.946-.734 1.34-1.034 2.715-2.093 3.85-3.372 1.378-1.55 2.338-3.36 2.338-5.71 0-2.298-1.298-4.225-3.071-5.035-1.723-.788-4.037-.58-6.236 1.706a.802.802 0 0 1-1.155 0C9.711 3.44 7.397 3.232 5.675 4.02Zm6.813.037c-2.471-2.21-5.238-2.52-7.48-1.495C2.64 3.644 1 6.158 1 9.056c0 2.848 1.187 5.021 2.743 6.774 1.246 1.403 2.771 2.577 4.118 3.615.306.235.602.463.884.685.547.431 1.135.891 1.73 1.24.595.347 1.275.63 2.013.63.737 0 1.417-.283 2.012-.63.596-.349 1.183-.809 1.73-1.24.282-.222.578-.45.884-.685 1.347-1.038 2.872-2.212 4.119-3.615 1.556-1.753 2.742-3.926 2.742-6.774 0-2.898-1.64-5.412-4.008-6.494-2.242-1.025-5.009-.716-7.48 1.495Z" fill="#EFEFEF"/></svg>
